wordpress/wp-content/themes/bluearrow-2017/assets/images/logo-houston.svg

<?xml version="1.0" encoding="UTF-8"?>
<svg width="106px" height="26px" viewBox="0 0 106 26" version="1.1" xmlns="http://www.w3.org/2000/svg" xmlns:xlink="http://www.w3.org/1999/xlink">
    <!-- Generator: Sketch 41.2 (35397) - http://www.bohemiancoding.com/sketch -->
    <title>logo-houston</title>
    <desc>Created with Sketch.</desc>
    <defs></defs>
    <g id="export" stroke="none" stroke-width="1" fill="none" fill-rule="evenodd">
        <g id="logo-houston" fill="#FFFFFF">
            <path d="M74.9254773,9.10243902 L76.5125497,9.10243902 L76.5125497,16.5560976 L74.9254773,16.5560976 L74.9254773,9.10243902 Z M62.8178118,11.8243902 L66.5109991,16.5658537 L67.9383661,16.5658537 L67.9383661,9.11219512 L66.2814226,9.11219512 L66.2814226,13.7073171 L62.7080143,9.11219512 L61.1608683,9.11219512 L61.1608683,16.5658537 L62.8178118,16.5658537 L62.8178118,11.8243902 Z M9.78563814,13.5804878 L12.8799302,13.5804878 L12.8799302,16.5756098 L14.5568369,16.5756098 L14.5568369,9.12195122 L12.8799302,9.12195122 L12.8799302,12.0487805 L9.78563814,12.0487805 L9.78563814,9.12195122 L8.10873147,9.12195122 L8.10873147,16.5756098 L9.78563814,16.5756098 L9.78563814,13.5804878 Z M97.6236069,16.6146341 L99.3903479,16.6146341 L99.3903479,14.9073171 L97.6236069,14.9073171 L97.6236069,16.6146341 Z M91.7743967,16.6926829 C92.969306,16.744341 94.1218903,16.254851 94.8986336,15.3658537 L93.8306037,14.3121951 C93.3132883,14.8544176 92.592706,15.1678329 91.8342863,15.1804878 C91.220642,15.1656249 90.6394251,14.9080511 90.2236219,14.466701 C89.8078188,14.0253508 89.5930137,13.437995 89.6283555,12.8390244 L89.6283555,12.8390244 C89.5985693,12.2442695 89.8161717,11.6630259 90.2316593,11.2275233 C90.647147,10.7920207 91.2251898,10.5392912 91.8342863,10.5268293 C92.5703988,10.5468827 93.2691587,10.848092 93.7806958,11.3658537 L94.8487257,10.1658537 C94.064931,9.38121963 92.9749147,8.96216536 91.8542494,9.01463415 C90.7853897,8.98179134 89.7502068,9.38238396 88.9940354,10.121473 C88.237864,10.860562 87.8280126,11.8723595 87.8616145,12.9170732 L87.8616145,12.9170732 C87.8424631,13.9369878 88.2485486,14.9206503 88.98653,15.6419604 C89.7245115,16.3632704 90.7309091,16.7601822 91.7743967,16.7414634 L91.7743967,16.6926829 Z M80.7147979,11.8634146 L84.4079853,16.604878 L85.8353523,16.604878 L85.8353523,9.15121951 L84.1784088,9.15121951 L84.1784088,13.7463415 L80.6050005,9.15121951 L79.0578544,9.15121951 L79.0578544,16.604878 L80.6549084,16.604878 L80.7147979,11.8634146 Z M2.03992635,4 L105,4 L105,22 L2,22 L2.03992635,4 Z M3.69686985,20.3804878 L103.382983,20.3804878 L103.382983,5.6097561 L3.6569435,5.6097561 L3.69686985,20.3804878 Z M30.2978002,16.6926829 C32.3540072,16.6926829 33.6416319,15.5902439 33.6416319,13.3268293 L33.6416319,9.12195122 L31.9647253,9.12195122 L31.9647253,13.395122 C31.9647253,14.5756098 31.3458668,15.1804878 30.3177633,15.1804878 C29.2896599,15.1804878 28.6708014,14.5560976 28.6708014,13.3463415 L28.6708014,9.13170732 L26.9539684,9.13170732 L26.9539684,13.3853659 C26.8278835,14.2806287 27.1319937,15.1826158 27.7779267,15.8292157 C28.4238596,16.4758156 29.3391696,16.794508 30.2578738,16.6926829 L30.2978002,16.6926829 Z M16.7028782,12.8780488 L16.7028782,12.8780488 C16.7028782,10.6904624 18.5172552,8.91707317 20.7554027,8.91707317 C22.9935501,8.91707317 24.8079271,10.6904624 24.8079271,12.8780488 L24.8079271,12.8780488 C24.8079271,15.0656352 22.9935501,16.8390244 20.7554027,16.8390244 C18.5172552,16.8390244 16.7028782,15.0656352 16.7028782,12.8780488 L16.7028782,12.8780488 Z M18.449656,12.8780488 C18.4307538,13.4900869 18.6663613,14.0834974 19.1027102,14.5228572 C19.5390591,14.962217 20.1389151,15.2100349 20.7653842,15.2097561 C21.3857041,15.2101262 21.979539,14.9640601 22.4105778,14.5280408 C22.8416166,14.0920214 23.0728384,13.5034975 23.0511677,12.897561 L23.0511677,12.897561 C23.0727765,12.28555 22.8397472,11.691098 22.405269,11.2498896 C21.9707908,10.8086812 21.3719457,10.5583728 20.7454211,10.5560976 C20.1233029,10.5556278 19.527865,10.8030249 19.0965188,11.2411963 C18.6651726,11.6793676 18.4351873,12.2704542 18.4596376,12.8780488 L18.449656,12.8780488 Z M38.961818,15.2682927 C38.1165747,15.2417831 37.3090897,14.9198549 36.6860161,14.3609756 L35.6878574,15.5219512 C36.5803275,16.2924716 37.7311143,16.7160036 38.9218917,16.7121951 C40.5688536,16.7121951 41.7167361,15.8829268 41.7167361,14.4 L41.7167361,14.4 C41.7167361,13.102439 40.8683012,12.5658537 39.3211552,12.1658537 C38.0035856,11.8341463 37.6741932,11.6780488 37.6741932,11.1902439 L37.6741932,11.1902439 C37.6741932,10.8292683 38.0035856,10.5463415 38.672352,10.5463415 C39.3984658,10.5860089 40.0949119,10.8412763 40.6686694,11.2780488 L41.5370675,10.0390244 C40.7393558,9.39736526 39.7353418,9.05182557 38.7022967,9.06341463 C38.0381255,8.98652149 37.3714324,9.18566599 36.864704,9.61231259 C36.3579757,10.0389592 36.0577554,10.6539202 36.0372129,11.3073171 L36.0372129,11.3073171 C36.0372129,12.7902439 37.0353716,13.2 38.5625545,13.5902439 C39.8401977,13.9121951 40.099719,14.1170732 40.099719,14.5658537 L40.099719,14.5658537 C40.099719,14.995122 39.6804923,15.2682927 38.9917628,15.2682927 L38.961818,15.2682927 Z M50.9696676,12.9073171 L50.9696676,12.9073171 C50.9696676,10.7197306 52.7840446,8.94634146 55.0221921,8.94634146 C57.2603395,8.94634146 59.0747165,10.7197306 59.0747165,12.9073171 L59.0747165,12.9073171 C59.0747165,15.0949035 57.2603395,16.8682927 55.0221921,16.8682927 C52.7840446,16.8682927 50.9696676,15.0949035 50.9696676,12.9073171 L50.9696676,12.9073171 Z M52.726427,12.9073171 C52.7048182,13.5193281 52.9378476,14.1137801 53.3723257,14.5549884 C53.8068039,14.9961968 54.405649,15.2465053 55.0321737,15.2487805 C55.6524936,15.2491506 56.2463284,15.0030845 56.6773672,14.5670652 C57.108406,14.1310458 57.3396279,13.5425219 57.3179572,12.9365854 L57.3179572,12.9365854 C57.3395659,12.3245743 57.1065366,11.7301224 56.6720584,11.288914 C56.2375802,10.8477056 55.6387352,10.5973972 55.0122105,10.595122 C54.3900923,10.5946522 53.7946544,10.8420493 53.3633082,11.2802207 C52.931962,11.718392 52.7019767,12.3094786 52.726427,12.9170732 L52.726427,12.9073171 Z M45.5396841,10.702439 L45.5396841,16.6439024 L47.2165908,16.6439024 L47.2165908,10.702439 L49.532319,10.702439 L49.532319,9.1902439 L43.2139742,9.1902439 L43.2139742,10.702439 L45.5396841,10.702439 Z" id="Shape"></path>
        </g>
    </g>
</svg>

<svg width="106" height="26" viewBox="0 0 106 26" xmlns="http://www.w3.org/2000/svg"><title>logo-houston</title><path d="M74.925 9.102h1.588v7.454h-1.588V9.102zm-12.107 2.722l3.693 4.742h1.427V9.112h-1.657v4.595l-3.573-4.595h-1.547v7.454h1.657v-4.742zM9.786 13.58h3.094v2.996h1.677V9.122H12.88v2.927H9.786V9.122H8.109v7.454h1.677V13.58zm87.838 3.035h1.766v-1.708h-1.766v1.708zm-5.85.078a3.924 3.924 0 0 0 3.125-1.327l-1.068-1.054a2.824 2.824 0 0 1-1.997.868 2.289 2.289 0 0 1-1.61-.713 2.185 2.185 0 0 1-.596-1.628 2.176 2.176 0 0 1 .604-1.611 2.28 2.28 0 0 1 1.602-.701c.736.02 1.435.321 1.947.839l1.068-1.2a3.972 3.972 0 0 0-2.995-1.151 3.921 3.921 0 0 0-2.86 1.106 3.74 3.74 0 0 0-1.132 2.796 3.712 3.712 0 0 0 1.125 2.725 3.89 3.89 0 0 0 2.787 1.1v-.05zm-11.06-4.83l3.694 4.742h1.427V9.15h-1.657v4.595l-3.573-4.595h-1.547v7.454h1.597l.06-4.742zM2.04 4H105v18H2l.04-18zm1.657 16.38h99.686V5.61H3.657l.04 14.77zm26.6-3.687c2.057 0 3.345-1.103 3.345-3.366V9.122h-1.677v4.273c0 1.18-.62 1.785-1.647 1.785-1.028 0-1.647-.624-1.647-1.834V9.132h-1.717v4.253a2.886 2.886 0 0 0 .824 2.444 3.035 3.035 0 0 0 2.48.864h.04zm-13.594-3.815c0-2.188 1.814-3.96 4.052-3.96 2.239 0 4.053 1.772 4.053 3.96 0 2.188-1.814 3.961-4.053 3.961-2.238 0-4.052-1.773-4.052-3.961zm1.747 0a2.236 2.236 0 0 0 .653 1.645 2.342 2.342 0 0 0 3.308.005 2.206 2.206 0 0 0 .64-1.63 2.235 2.235 0 0 0-.646-1.648 2.342 2.342 0 0 0-1.66-.694c-.622 0-1.217.247-1.648.685a2.206 2.206 0 0 0-.637 1.637h-.01zm20.512 2.39a3.577 3.577 0 0 1-2.276-.907l-.998 1.161a4.927 4.927 0 0 0 3.234 1.19c1.647 0 2.795-.83 2.795-2.312 0-1.298-.849-1.834-2.396-2.234-1.317-.332-1.647-.488-1.647-.976 0-.36.33-.644.998-.644.726.04 1.423.295 1.997.732l.868-1.239a4.445 4.445 0 0 0-2.835-.976 2.423 2.423 0 0 0-1.837.55 2.312 2.312 0 0 0-.828 1.694c0 1.483.998 1.893 2.526 2.283 1.277.322 1.537.527 1.537.976 0 .43-.42.702-1.108.702h-.03zm12.008-2.36c0-2.188 1.814-3.962 4.052-3.962 2.238 0 4.053 1.774 4.053 3.961 0 2.188-1.815 3.961-4.053 3.961s-4.052-1.773-4.052-3.96zm1.756 0a2.235 2.235 0 0 0 .646 1.647 2.342 2.342 0 0 0 1.66.694c.62 0 1.214-.246 1.645-.682a2.206 2.206 0 0 0 .641-1.63 2.235 2.235 0 0 0-.646-1.648 2.342 2.342 0 0 0-1.66-.694c-.622 0-1.217.247-1.649.685a2.206 2.206 0 0 0-.637 1.637v-.01zm-7.186-2.206v5.942h1.677v-5.942h2.315V9.19h-6.318v1.512h2.326z" fill="#FFF" fill-rule="evenodd"/></svg>
